X:124 
T:Lady Gordon's* (reel) 
T:Matt Peoples'
B:CRE3.167	(gan ainm)
F:file ID: cre.3/124lady_g
R:reel
L:1/8
Q:180
M:C
K:D
FABc d2BA|d2BA FEE2|FABc d2BA|1 f3e dBBA:|\
[2 f3e dBB2||
add2 adbd|adde fee2|add2 a3f|egfe dBAB|
add2 adbd|adde fee2|a3a b2af|egfe dBBA||

%%%

